src/activities/chess/resource/wp.svg

<?xml version="1.0" encoding="UTF-8" standalone="no"?>
<!-- Created with Inkscape (http://www.inkscape.org/) -->

<svg
   xmlns:dc="http://purl.org/dc/elements/1.1/"
   xmlns:cc="http://creativecommons.org/ns#"
   xmlns:rdf="http://www.w3.org/1999/02/22-rdf-syntax-ns#"
   xmlns:svg="http://www.w3.org/2000/svg"
   xmlns="http://www.w3.org/2000/svg"
   xmlns:xlink="http://www.w3.org/1999/xlink"
   xmlns:sodipodi="http://sodipodi.sourceforge.net/DTD/sodipodi-0.dtd"
   xmlns:inkscape="http://www.inkscape.org/namespaces/inkscape"
   sodipodi:docname="wp.svg"
   inkscape:version="0.91 r13725"
   version="1.1"
   id="svg4684"
   viewBox="0 0 64.000001 64.000001"
   height="64"
   width="64">
  <defs
     id="defs4686">
    <linearGradient
       inkscape:collect="always"
       id="linearGradient4295">
      <stop
         style="stop-color:#f0f4f4;stop-opacity:1;"
         offset="0"
         id="stop4297" />
      <stop
         style="stop-color:#b4c8c8;stop-opacity:1"
         offset="1"
         id="stop4299" />
    </linearGradient>
    <linearGradient
       inkscape:collect="always"
       xlink:href="#linearGradient4295"
       id="linearGradient4301"
       x1="36"
       y1="4"
       x2="36"
       y2="28"
       gradientUnits="userSpaceOnUse" />
  </defs>
  <sodipodi:namedview
     inkscape:window-maximized="1"
     inkscape:window-y="0"
     inkscape:window-x="0"
     inkscape:window-height="1051"
     inkscape:window-width="1878"
     units="px"
     showgrid="false"
     inkscape:current-layer="layer2"
     inkscape:document-units="px"
     inkscape:cy="17.349006"
     inkscape:cx="32.816333"
     inkscape:zoom="7.919596"
     inkscape:pageshadow="2"
     inkscape:pageopacity="0.0"
     borderopacity="1.0"
     bordercolor="#666666"
     pagecolor="#ffffff"
     id="base">
    <inkscape:grid
       type="xygrid"
       id="grid4137"
       empspacing="4" />
  </sodipodi:namedview>
  <metadata
     id="metadata4689">
    <rdf:RDF>
      <cc:Work
         rdf:about="">
        <dc:format>image/svg+xml</dc:format>
        <dc:type
           rdf:resource="http://purl.org/dc/dcmitype/StillImage" />
        <dc:title></dc:title>
        <dc:date>2016</dc:date>
        <dc:creator>
          <cc:Agent>
            <dc:title>Timothée Giet</dc:title>
          </cc:Agent>
        </dc:creator>
        <cc:license
           rdf:resource="http://creativecommons.org/licenses/by-sa/4.0/" />
      </cc:Work>
      <cc:License
         rdf:about="http://creativecommons.org/licenses/by-sa/4.0/">
        <cc:permits
           rdf:resource="http://creativecommons.org/ns#Reproduction" />
        <cc:permits
           rdf:resource="http://creativecommons.org/ns#Distribution" />
        <cc:requires
           rdf:resource="http://creativecommons.org/ns#Notice" />
        <cc:requires
           rdf:resource="http://creativecommons.org/ns#Attribution" />
        <cc:permits
           rdf:resource="http://creativecommons.org/ns#DerivativeWorks" />
        <cc:requires
           rdf:resource="http://creativecommons.org/ns#ShareAlike" />
      </cc:License>
    </rdf:RDF>
  </metadata>
  <g
     inkscape:groupmode="layer"
     id="layer2"
     inkscape:label="Calque 2" />
  <g
     id="g4250"
     style="fill:#3d4343;fill-opacity:1">
    <path
       style="fill:#3d4343;fill-opacity:1;fill-rule:evenodd;stroke:none;stroke-width:1px;stroke-linecap:butt;stroke-linejoin:miter;stroke-opacity:1"
       d="M 25 27 L 22.023438 42.869141 L 10 47 C 7.9364847 49.272523 7.9364847 54.727477 10 57 L 14.490234 61.640625 L 49.509766 61.640625 L 54 57 C 56.063515 54.727477 56.120155 49.272523 54.056641 47 L 54 47 L 41.988281 42.933594 L 39 27 L 25 27 z "
       id="path4139-5" />
  </g>
  <path
     style="fill:#b4c8c8;fill-opacity:1;fill-rule:evenodd;stroke:none;stroke-width:1px;stroke-linecap:butt;stroke-linejoin:miter;stroke-opacity:1"
     d="m 16,60 32,0 3,-3 -38,0 z"
     id="path4139"
     inkscape:connector-curvature="0"
     sodipodi:nodetypes="ccccc" />
  <path
     style="fill:#ccdada;fill-opacity:1;fill-rule:evenodd;stroke:none;stroke-width:1px;stroke-linecap:butt;stroke-linejoin:miter;stroke-opacity:1"
     d="m 12,49 c -1.885618,1.707047 -1.885618,5.292953 0,7 l 40,0 c 1.885618,-1.707047 1.885618,-5.292953 0,-7 z"
     id="path4145"
     inkscape:connector-curvature="0"
     sodipodi:nodetypes="ccccc" />
  <path
     style="fill:#f0f4f4;fill-rule:evenodd;stroke:none;stroke-width:1px;stroke-linecap:butt;stroke-linejoin:miter;stroke-opacity:1;fill-opacity:1"
     d="m 24,44 16,0 12,4 -40,0 z"
     id="path4139-3"
     inkscape:connector-curvature="0"
     sodipodi:nodetypes="ccccc" />
  <path
     style="fill:#ccdada;fill-opacity:1;fill-rule:evenodd;stroke:none;stroke-width:1px;stroke-linecap:butt;stroke-linejoin:miter;stroke-opacity:1"
     d="m 24,43 16,0 -4,-27 -8,0 z"
     id="path4171"
     inkscape:connector-curvature="0"
     sodipodi:nodetypes="ccccc" />
  <circle
     style="color:#000000;clip-rule:nonzero;display:inline;overflow:visible;visibility:visible;opacity:1;isolation:auto;mix-blend-mode:normal;color-interpolation:sRGB;color-interpolation-filters:linearRGB;solid-color:#000000;solid-opacity:1;fill:#3d4343;fill-opacity:1;fill-rule:evenodd;stroke:none;stroke-width:1px;stroke-linecap:butt;stroke-linejoin:miter;stroke-miterlimit:4;stroke-dasharray:none;stroke-dashoffset:0;stroke-opacity:1;marker:none;color-rendering:auto;image-rendering:auto;shape-rendering:auto;text-rendering:auto;enable-background:accumulate"
     id="path4177-6"
     cx="32"
     cy="15.621192"
     r="13.38896" />
  <circle
     style="color:#000000;clip-rule:nonzero;display:inline;overflow:visible;visibility:visible;opacity:1;isolation:auto;mix-blend-mode:normal;color-interpolation:sRGB;color-interpolation-filters:linearRGB;solid-color:#000000;solid-opacity:1;fill:url(#linearGradient4301);fill-opacity:1;fill-rule:evenodd;stroke:none;stroke-width:1px;stroke-linecap:butt;stroke-linejoin:miter;stroke-miterlimit:4;stroke-dasharray:none;stroke-dashoffset:0;stroke-opacity:1;marker:none;color-rendering:auto;image-rendering:auto;shape-rendering:auto;text-rendering:auto;enable-background:accumulate"
     id="path4177"
     cx="32"
     cy="16"
     r="12" />
</svg>

<!--Created with Inkscape (http://www.inkscape.org/)--><svg xmlns:dc="http://purl.org/dc/elements/1.1/" xmlns:cc="http://creativecommons.org/ns#" xmlns:rdf="http://www.w3.org/1999/02/22-rdf-syntax-ns#" xmlns="http://www.w3.org/2000/svg" xmlns:xlink="http://www.w3.org/1999/xlink" xmlns:sodipodi="http://sodipodi.sourceforge.net/DTD/sodipodi-0.dtd" xmlns:inkscape="http://www.inkscape.org/namespaces/inkscape" sodipodi:docname="wp.svg" inkscape:version="0.91 r13725" viewBox="0 0 64.000001 64.000001" height="64" width="64"><defs><linearGradient inkscape:collect="always" id="a"><stop style="stop-color:#f0f4f4;stop-opacity:1" offset="0"/><stop style="stop-color:#b4c8c8;stop-opacity:1" offset="1"/></linearGradient><linearGradient inkscape:collect="always" xlink:href="#a" id="b" x1="36" y1="4" x2="36" y2="28" gradientUnits="userSpaceOnUse"/></defs><sodipodi:namedview inkscape:window-maximized="1" inkscape:window-y="0" inkscape:window-x="0" inkscape:window-height="1051" inkscape:window-width="1878" units="px" showgrid="false" inkscape:current-layer="layer2" inkscape:document-units="px" inkscape:cy="17.349006" inkscape:cx="32.816333" inkscape:zoom="7.919596" inkscape:pageshadow="2" inkscape:pageopacity="0.0" borderopacity="1.0" bordercolor="#666666" pagecolor="#ffffff"><inkscape:grid type="xygrid" empspacing="4"/></sodipodi:namedview><metadata><rdf:RDF><cc:Work><dc:format>image/svg+xml</dc:format><dc:type rdf:resource="http://purl.org/dc/dcmitype/StillImage"/><dc:title/><dc:date>2016</dc:date><dc:creator><cc:Agent><dc:title>Timothée Giet</dc:title></cc:Agent></dc:creator><cc:license rdf:resource="http://creativecommons.org/licenses/by-sa/4.0/"/></cc:Work><cc:License rdf:about="http://creativecommons.org/licenses/by-sa/4.0/"><cc:permits rdf:resource="http://creativecommons.org/ns#Reproduction"/><cc:permits rdf:resource="http://creativecommons.org/ns#Distribution"/><cc:requires rdf:resource="http://creativecommons.org/ns#Notice"/><cc:requires rdf:resource="http://creativecommons.org/ns#Attribution"/><cc:permits rdf:resource="http://creativecommons.org/ns#DerivativeWorks"/><cc:requires rdf:resource="http://creativecommons.org/ns#ShareAlike"/></cc:License></rdf:RDF></metadata><g style="fill:#3d4343;fill-opacity:1"><path style="fill:#3d4343;fill-opacity:1;fill-rule:evenodd;stroke:none;stroke-width:1px;stroke-linecap:butt;stroke-linejoin:miter;stroke-opacity:1" d="m25 27-2.977 15.87L10 47c-2.064 2.273-2.064 7.727 0 10l4.49 4.64h35.02L54 57c2.064-2.273 2.12-7.727.057-10H54l-12.012-4.066L39 27H25z"/></g><path style="fill:#b4c8c8;fill-opacity:1;fill-rule:evenodd;stroke:none;stroke-width:1px;stroke-linecap:butt;stroke-linejoin:miter;stroke-opacity:1" d="M16 60h32l3-3H13z" inkscape:connector-curvature="0" sodipodi:nodetypes="ccccc"/><path style="fill:#ccdada;fill-opacity:1;fill-rule:evenodd;stroke:none;stroke-width:1px;stroke-linecap:butt;stroke-linejoin:miter;stroke-opacity:1" d="M12 49c-1.886 1.707-1.886 5.293 0 7h40c1.886-1.707 1.886-5.293 0-7z" inkscape:connector-curvature="0" sodipodi:nodetypes="ccccc"/><path style="fill:#f0f4f4;fill-rule:evenodd;stroke:none;stroke-width:1px;stroke-linecap:butt;stroke-linejoin:miter;stroke-opacity:1;fill-opacity:1" d="M24 44h16l12 4H12z" inkscape:connector-curvature="0" sodipodi:nodetypes="ccccc"/><path style="fill:#ccdada;fill-opacity:1;fill-rule:evenodd;stroke:none;stroke-width:1px;stroke-linecap:butt;stroke-linejoin:miter;stroke-opacity:1" d="M24 43h16l-4-27h-8z" inkscape:connector-curvature="0" sodipodi:nodetypes="ccccc"/><circle style="color:#000;clip-rule:nonzero;display:inline;overflow:visible;visibility:visible;opacity:1;isolation:auto;mix-blend-mode:normal;color-interpolation:sRGB;color-interpolation-filters:linearRGB;solid-color:#000;solid-opacity:1;fill:#3d4343;fill-opacity:1;fill-rule:evenodd;stroke:none;stroke-width:1px;stroke-linecap:butt;stroke-linejoin:miter;stroke-miterlimit:4;stroke-dasharray:none;stroke-dashoffset:0;stroke-opacity:1;marker:none;color-rendering:auto;image-rendering:auto;shape-rendering:auto;text-rendering:auto;enable-background:accumulate" cx="32" cy="15.621192" r="13.38896"/><circle style="color:#000;clip-rule:nonzero;display:inline;overflow:visible;visibility:visible;opacity:1;isolation:auto;mix-blend-mode:normal;color-interpolation:sRGB;color-interpolation-filters:linearRGB;solid-color:#000;solid-opacity:1;fill:url(#b);fill-opacity:1;fill-rule:evenodd;stroke:none;stroke-width:1px;stroke-linecap:butt;stroke-linejoin:miter;stroke-miterlimit:4;stroke-dasharray:none;stroke-dashoffset:0;stroke-opacity:1;marker:none;color-rendering:auto;image-rendering:auto;shape-rendering:auto;text-rendering:auto;enable-background:accumulate" cx="32" cy="16" r="12"/></svg>
